X:5
T:Wake Up Susan
M:2/4
L:1/16
Z:jason
K:A
(3efg | a2A2 ABcA | E2A2 ABcA | d2B2 BcBA | GABc defg |
a2A2 ABcA | E2A2 ABcA | dcde fgaf | edcB A2 :|
|:A,A, | A,2E2 C2E2 | A,2Ac BAFD | E2B2 G2B2 | e2eg fecA |
A,2E2 C2E2 | A2Ac BAFD | E2B2 G2 ef | gefg a2 :|

